packages/foundations/assets/icons/functional/images/editing/copy_14.svg

<svg width="14" height="14" viewBox="0 0 14 14" fill="none" xmlns="http://www.w3.org/2000/svg">
<g clip-path="url(#clip0_83_117)">
<path fill-rule="evenodd" clip-rule="evenodd" d="M3.485 4.89999V11.2H7.685C7.86906 11.205 8.04419 11.2804 8.17439 11.4106C8.30458 11.5408 8.37995 11.7159 8.385 11.9C8.387 12.297 8.138 12.6 7.685 12.6H2.855C2.65119 12.5987 2.4561 12.5171 2.31198 12.373C2.16786 12.2289 2.08631 12.0338 2.085 11.83V4.89999C2.085 4.46999 2.369 4.20199 2.785 4.19999C3.201 4.19799 3.485 4.54999 3.485 4.89999ZM11.06 1.39999C11.5 1.39999 11.915 1.80299 11.915 2.23999V8.95899C11.915 9.39199 11.519 9.79899 11.06 9.79899H5.771C5.33 9.79899 4.915 9.38899 4.915 8.95899V2.23899C4.915 1.80699 5.331 1.39999 5.771 1.39999H11.06ZM6.285 2.79999H10.485V8.39999H6.285V2.79999Z" fill="#1A1C1F"/>
</g>
<defs>
<clipPath id="clip0_83_117">
<rect width="14" height="14" fill="white"/>
</clipPath>
</defs>
</svg>

<svg xmlns="http://www.w3.org/2000/svg" width="14" height="14" fill="none"><g clip-path="url(#a)"><path fill="#1A1C1F" fill-rule="evenodd" d="M3.485 4.9v6.3h4.2a.72.72 0 0 1 .7.7c.002.397-.247.7-.7.7h-4.83a.775.775 0 0 1-.77-.77V4.9c0-.43.284-.698.7-.7s.7.35.7.7m7.575-3.5c.44 0 .855.403.855.84v6.719c0 .433-.396.84-.855.84H5.771c-.441 0-.856-.41-.856-.84v-6.72c0-.432.416-.839.856-.839zM6.285 2.8h4.2v5.6h-4.2z" clip-rule="evenodd"/></g><defs><clipPath id="a"><path fill="#fff" d="M0 0h14v14H0z"/></clipPath></defs></svg>
